X: 6609
T: Cauliflower, The
R: jig
M: 6/8
K: Dmajor
(3ABc|:ded =cAG|EDE GED|EDE G2A|G2A GED|ded =cAG|EDE GED|~E3 dcd|edc d3:|
(3Bcd|:ede gag|fed =cAG|EDE G2A|G2A GED|ede gag|fed =cAG|Add dcd|edc d3:|

